src/Images/vector.svg

<svg width="143" height="138" viewBox="0 0 143 138" fill="none" xmlns="http://www.w3.org/2000/svg">
<path d="M19.5608 118.633C19.4712 118.517 19.3816 118.401 19.292 118.287C19.1862 118.384 19.007 118.47 18.9909 118.579C18.9746 118.676 19.1537 118.797 19.2431 118.907C19.3491 118.816 19.4549 118.725 19.5608 118.633ZM-8.25025 115.144C-8.3399 115.026 -8.42934 114.907 -8.51898 114.789C-8.63297 114.89 -8.81206 114.982 -8.82846 115.094C-8.83651 115.195 -8.66548 115.318 -8.57603 115.432C-8.46205 115.335 -8.3562 115.24 -8.25025 115.144ZM-5.90562 110.506C-6.00322 110.386 -6.09286 110.267 -6.1823 110.147C-6.20695 110.37 -6.22305 110.594 -6.2475 110.818C-6.13361 110.714 -6.01961 110.61 -5.90562 110.506ZM-1.93271 111.918C-1.69658 111.9 -1.46044 111.881 -1.2243 111.862C-1.2894 110.99 -1.3545 110.118 -1.42784 109.245C-1.66388 109.262 -1.90816 109.279 -2.15254 109.297C-2.0792 110.171 -2.00586 111.044 -1.93271 111.918ZM27.9626 121.503C28.1499 121.205 28.3372 120.907 28.5163 120.609C28.3291 120.904 28.1418 121.197 27.9546 121.49C27.7673 121.783 27.5881 122.076 27.409 122.368C27.5963 122.08 27.7754 121.791 27.9626 121.503ZM-26.5279 128.452C-29.7357 127.04 -32.8781 125.409 -36.1835 124.266C-41.5243 122.421 -46.9954 120.956 -52.3769 119.226C-65.4764 115.015 -78.5597 110.753 -91.6429 106.496C-102.398 102.999 -113.144 99.4898 -123.883 95.9499C-124.575 95.7236 -125.161 95.196 -125.934 94.7295C-125.218 92.5704 -123.932 92.1087 -122.027 92.8016C-119.544 93.702 -117.06 94.6074 -114.553 95.4378C-105.784 98.3427 -97.0083 101.265 -88.2073 104.09C-77.2653 107.603 -66.2743 110.967 -55.3321 114.5C-45.2775 117.747 -35.2798 121.148 -25.2415 124.433C-24.1831 124.781 -23.0109 124.8 -21.8873 124.972C-21.3092 125.326 -20.7311 125.682 -20.1531 126.036C-20.0473 125.791 -19.9414 125.548 -19.8357 125.304C-20.5194 125.195 -21.2034 125.086 -21.8873 124.976C-25.9987 122.699 -30.0531 120.305 -34.2378 118.169C-41.329 114.549 -48.5586 111.217 -55.6172 107.537C-66.8768 101.662 -77.9979 95.5094 -89.2739 89.6598C-94.7937 86.7949 -100.582 84.4502 -106.151 81.6771C-110.206 79.6581 -114.105 77.3232 -118.07 75.1282C-117.134 73.3851 -116.458 72.3691 -114.74 73.263C-109.839 75.8145 -104.897 78.3017 -99.9553 80.7865C-96.7638 82.3953 -93.5073 83.8925 -90.3321 85.5452C-83.2817 89.2161 -76.3044 93.0434 -69.2214 96.642C-57.3675 102.664 -45.4484 108.566 -33.5457 114.499C-29.3366 116.596 -25.6404 119.811 -20.723 120.332C-20.4217 120.514 -20.1206 120.697 -19.8194 120.879C-20.1287 120.701 -20.4299 120.521 -20.7311 120.341C-24.9157 117.132 -29.068 113.879 -33.2935 110.727C-39.0739 106.41 -44.9274 102.176 -50.7405 97.8957C-53.8015 95.6414 -56.8139 93.3186 -59.8996 91.1074C-65.7775 86.9105 -71.7208 82.8137 -77.5745 78.5981C-84.0551 73.9347 -90.4542 69.1695 -96.9104 64.4808C-99.0597 62.9226 -101.307 61.51 -103.448 59.9445C-104.791 58.961 -106.289 58.0117 -106.501 56.1782C-104.221 54.2626 -102.585 56.1302 -101.16 56.9834C-98.0664 58.8299 -95.2415 61.1193 -92.3269 63.2507C-82.1989 70.6488 -72.0872 78.0673 -61.9594 85.4572C-53.5167 91.6146 -45.0414 97.7206 -36.6069 103.891C-30.4764 108.382 -24.4029 112.958 -18.2561 117.439C-17.6944 117.85 -16.8232 117.842 -16.0987 118.029C-15.7159 118.42 -15.3333 118.811 -14.9508 119.203C-14.6495 119.379 -14.3563 119.556 -14.0552 119.733C-14.3402 119.54 -14.617 119.346 -14.9019 119.153C-15.2928 118.771 -15.6835 118.39 -16.0824 118.008C-17.3443 116.58 -18.5411 115.083 -19.8844 113.736C-42.9002 90.6865 -65.9404 67.6584 -88.9644 44.6142C-90.2833 43.292 -91.5127 41.8762 -92.734 40.5548C-91.594 38.6001 -90.324 38.894 -89.2005 39.7822C-87.9956 40.7315 -86.9697 41.908 -85.8787 42.9989C-63.6608 65.2128 -41.451 87.434 -19.2251 109.632C-17.8816 110.971 -16.3592 112.133 -14.9262 113.377C-14.5437 113.764 -14.1609 114.152 -13.7702 114.539C-13.4772 114.723 -13.1841 114.906 -12.891 115.09C-13.1841 114.907 -13.4772 114.725 -13.7702 114.542C-14.1609 114.156 -14.5517 113.771 -14.9345 113.386C-15.2438 112.514 -15.366 111.51 -15.887 110.794C-20.4788 104.502 -25.1357 98.2604 -29.7682 92.0045C-32.9352 87.7352 -36.151 83.5025 -39.2528 79.1891C-43.576 73.1881 -47.7525 67.0861 -52.1 61.1013C-58.8981 51.7298 -65.7857 42.4225 -72.6326 33.081C-73.8702 31.3933 -75.1972 29.7488 -76.1905 27.9218C-76.4998 27.347 -75.8242 26.2406 -75.6044 25.3784C-74.7413 25.6048 -73.5038 25.5453 -73.0886 26.1022C-68.0816 32.7912 -63.2213 39.586 -58.2876 46.3247C-51.8966 55.0523 -45.4159 63.7164 -39.0819 72.4848C-35.866 76.9348 -32.9596 81.6136 -29.7682 86.0833C-24.4762 93.4993 -19.0784 100.844 -13.6644 108.176C-13.1351 108.9 -12.199 109.332 -11.45 109.899C-11.0673 110.673 -10.6766 111.447 -9.84594 112.51C-9.52851 112.628 -9.6425 112.487 -9.7565 112.346C-9.89494 112.483 -10.025 112.619 -10.1554 112.756C-10.025 112.878 -9.90298 113.067 -9.74834 113.1C-9.6588 113.12 -9.51221 112.904 -9.84594 112.51C-10.6846 111.45 -11.0673 110.679 -11.4581 109.908C-11.6292 109.173 -11.6534 108.366 -11.9954 107.718C-16.636 98.7408 -21.4069 89.8341 -25.9499 80.8093C-29.1006 74.5624 -31.7791 68.081 -34.946 61.8439C-40.4414 50.9913 -46.1731 40.2569 -51.7744 29.4549C-54.1273 24.9095 -56.3906 20.3177 -59.0202 15.113C-58.5969 14.8003 -57.856 14.2508 -57.1966 13.7622C-56.6347 13.9169 -56.0893 13.9048 -55.959 14.1295C-51.123 22.7072 -46.8162 31.548 -42.5339 40.4222C-36.9895 51.9089 -30.5822 62.9812 -24.639 74.2758C-23.4993 76.4431 -22.8968 78.8944 -21.7732 81.073C-20.0228 84.4542 -17.9224 87.6522 -16.1881 91.0382C-13.2574 96.7673 -10.4892 102.584 -7.06164 109.57C-7.06164 107.127 -6.67087 105.767 -7.12684 104.804C-11.1731 96.195 -13.1434 86.9015 -16.1311 77.9451C-19.7053 67.2066 -23.4584 56.5153 -26.6255 45.6546C-29.2145 36.7829 -33.3586 28.4315 -34.9136 19.1992C-35.5323 15.5494 -37.6978 12.1796 -38.9028 8.59659C-39.1633 7.8215 -38.3247 6.68008 -37.8525 5.26996C-34.4983 8.88885 -33.6027 13.0312 -32.3326 16.8878C-28.3108 29.0739 -24.5984 41.3593 -20.6743 53.5746C-17.149 64.537 -13.5015 75.4604 -9.88669 86.3943C-7.5826 93.3666 -5.23797 100.327 -2.51866 107.226C-3.3493 95.3946 -6.06026 83.8289 -7.35482 72.0621C-8.64938 60.2587 -11.2789 48.6059 -13.184 36.8627C-15.081 25.1383 -16.807 13.3853 -18.6632 1.23672C-17.3036 1.12352 -16.4325 1.05189 -15.1381 0.943637C-9.51232 36.5086 -3.91896 71.857 1.67409 107.205C1.92632 107.191 2.1871 107.175 2.43933 107.161V0H5.96463V111.796C6.16002 111.801 6.36354 111.807 6.55893 111.813C7.11249 107.771 7.60901 103.719 8.24406 99.6909C9.45723 92.0379 10.7761 84.4021 12.0136 76.7549C12.7138 72.4643 13.3407 68.1624 14.0327 63.8711C15.3516 55.6686 16.7031 47.4686 18.0466 39.2686C18.6245 35.7238 19.52 32.1985 19.7317 28.6335C20.0248 23.6843 20.9692 18.8881 21.9543 14.0611C22.6382 10.7255 22.8823 7.29885 23.3138 3.91115C23.5255 2.21205 24.2421 1.03567 26.5217 1.1024C26.6275 2.40254 26.9857 3.73286 26.7984 4.98254C26.2121 8.89857 25.3411 12.7707 24.7386 16.6859C24.1689 20.4358 23.9408 24.2411 23.3222 27.9813C21.9543 36.1715 20.3749 44.326 19.007 52.5154C18.3803 56.254 18.0466 60.0422 17.558 63.8052C16.7682 69.816 16.1332 75.8504 15.1237 81.8245C14.2851 86.834 12.8115 91.7375 11.9892 96.7494C11.3052 100.959 11.1508 105.257 11.1101 109.517C22.1904 75.4481 33.271 41.3771 44.3921 7.31754C44.5549 6.8168 45.1167 6.44804 45.6296 5.87241C47.4533 6.31939 48.2266 7.74012 47.5427 9.20551C44.5629 15.5721 43.7652 22.6104 40.9483 29.0812C38.1802 35.4429 36.845 42.4112 34.655 49.0424C31.4715 58.7192 27.4985 68.1788 24.9666 78.016C22.7522 86.6305 18.5919 94.5976 17.2078 103.46C16.874 105.599 14.8957 107.428 15.205 109.904C14.8631 110.484 14.5131 111.064 14.1631 111.645C14.3992 111.746 14.6433 111.847 14.8794 111.949C14.9935 111.267 15.0993 110.585 15.205 109.904C15.946 108.852 16.817 107.87 17.3952 106.735C21.1564 99.2863 24.8037 91.7774 28.5895 84.3402C32.1962 77.2572 36.0063 70.2759 39.5967 63.1831C46.9811 48.592 54.2512 33.9457 61.6274 19.353C62.637 17.3568 64.0046 15.5421 65.4294 13.2909C66.4064 14.2491 66.9438 14.7816 67.7987 15.6169C63.2068 24.3355 58.6803 32.893 54.1944 41.4676C53.4941 42.8052 52.9813 44.2413 52.3137 45.5969C51.1495 47.9709 49.9445 50.3303 48.7152 52.6709C48.0883 53.8482 47.2904 54.9318 46.696 56.1229C40.7772 68.0306 34.8909 79.9577 28.9802 91.8686C26.6193 96.6134 24.1932 101.322 21.8485 106.073C21.4415 106.9 21.2786 107.85 21.0018 108.745C19.5282 109.311 18.5594 110.16 19.3002 113.252C20.1551 110.985 20.5784 109.865 21.0018 108.745C22.2881 107.619 23.8269 106.68 24.8119 105.335C28.614 100.12 32.2044 94.7482 35.9495 89.4865C40.6795 82.8406 45.4667 76.2305 50.262 69.6327C54.7316 63.4819 59.2746 57.3848 63.7442 51.2323C69.549 43.2472 75.2724 35.2044 81.1179 27.2493C82.217 25.7481 83.6417 24.1735 86.0109 26.261C83.0069 30.6435 80.1085 35.048 77.0309 39.3264C72.7079 45.3412 68.2383 51.2495 63.8583 57.2252C57.573 65.8063 51.3286 74.4191 45.0353 82.9953C38.5221 91.8816 31.9438 100.729 25.447 109.632C24.9259 110.348 24.7956 111.353 24.4864 112.224C24.0955 112.61 23.7128 112.997 23.3222 113.383C23.1512 113.682 22.972 113.982 22.801 114.281C22.972 113.981 23.1511 113.68 23.3222 113.379C23.7047 112.993 24.0955 112.606 24.4782 112.22C26.0331 112.409 26.8879 111.457 27.8242 110.39C29.4119 108.566 31.2274 106.937 32.8719 105.149C34.2722 103.623 35.3062 101.659 36.9346 100.475C40.0527 98.2059 42.2263 95.1007 44.8804 92.436C61.6193 75.6411 78.3987 58.8821 95.1863 42.1335C96.2528 41.0653 97.4334 40.0599 98.7197 39.2888C99.1513 39.0333 100.185 39.4509 100.723 39.8539C101.04 40.0859 101.146 41.0385 100.926 41.4341C100.389 42.416 99.7048 43.371 98.8988 44.1501C92.9313 49.9257 86.8496 55.5921 80.939 61.4263C77.8613 64.4614 75.1341 67.8473 72.0974 70.9297C68.3685 74.7163 64.4444 78.3067 60.6912 82.0664C56.8322 85.927 53.1115 89.9236 49.2688 93.8005C43.1627 99.9628 36.9917 106.061 30.8856 112.222C29.8188 113.294 28.9314 114.538 27.9626 115.703C27.58 116.089 27.1893 116.476 26.8065 116.863C26.416 117.249 26.0331 117.635 25.6424 118.023C25.4551 118.315 25.2679 118.608 25.0807 118.901C25.2679 118.605 25.4551 118.309 25.6342 118.014C26.025 117.627 26.4076 117.241 26.7984 116.855C27.1809 116.469 27.5718 116.083 27.9546 115.696C29.9411 114.658 32.0822 113.843 33.8816 112.541C41.7298 106.835 49.4885 100.993 57.2717 95.1911C61.8471 91.7782 66.1622 87.9428 71.0389 85.0282C76.4693 81.7814 81.1912 77.6668 86.3285 74.0747C94.5921 68.3 102.75 62.3853 110.891 56.4494C112.275 55.4398 113.415 54.9619 115.353 56.4428C113.912 57.962 112.87 59.7434 111.323 60.5738C105.046 63.9427 100.177 69.2004 94.2909 73.0399C82.6567 80.6327 71.8694 89.3937 60.4306 97.2493C52.1264 102.95 44.1641 109.16 36.0634 115.158C34.1421 116.578 32.2695 118.058 30.6656 119.983C38.8722 116.598 46.566 112.286 54.4142 108.298C62.4171 104.237 70.412 100.171 78.4314 96.1591C86.4181 92.1657 94.5595 88.4606 102.408 84.2173C110.11 80.0538 117.771 75.8894 126.685 72.2534C125.993 75.7363 124.381 76.7899 122.427 77.7156C118.463 79.597 114.538 81.5746 110.655 83.6156C103.776 87.2288 96.9854 91.0309 90.0653 94.5512C78.6999 100.326 67.2287 105.892 55.8469 111.638C49.4315 114.881 43.1219 118.352 36.7227 121.635C34.0035 123.027 31.1786 124.205 28.663 126.204C30.6168 125.668 32.6277 125.305 34.5001 124.568C47.1682 119.578 60.2515 115.909 73.286 112.054C77.4461 110.824 81.3948 108.894 85.5388 107.578C96.8635 103.98 108.261 100.598 119.594 97.0017C123.193 95.8596 126.694 94.3786 130.186 92.9237C131.88 92.2203 133.142 92.414 134.428 94.3119C133.622 94.8769 132.881 95.6731 131.977 95.9808C121.613 99.5036 111.233 102.982 100.836 106.412C90.9934 109.661 81.1262 112.833 71.2669 116.048C58.1836 120.316 45.1004 124.595 31.1867 129.142C32.8801 129.319 33.8733 129.664 34.7444 129.476C41.9578 127.924 49.2038 126.669 56.5716 126.01C62.0183 125.523 67.4078 124.339 72.8137 123.402C76.1517 122.822 79.4734 122.107 82.8114 121.483C86.8821 120.72 90.9448 119.855 95.048 119.287C98.4266 118.819 101.814 118.892 105.249 118.153C114.286 116.207 123.461 114.883 132.604 113.455C134.64 113.137 136.764 113.408 138.93 113.408C139.296 115.772 138.181 116.575 136.537 116.834C128.876 118.041 121.19 119.113 113.545 120.411C107.789 121.387 102.123 122.998 96.3425 123.634C92.1822 124.091 87.9976 124.174 83.8535 124.98C78.4719 126.026 73.0417 126.779 67.644 127.75C64.8759 128.248 62.1648 129.118 59.3804 129.508C55.2363 130.088 51.0517 130.347 46.8997 130.823C43.5129 131.211 40.1178 131.639 36.7555 132.196C34.7283 132.531 32.7498 133.146 29.4444 133.952C32.2859 134.077 33.8896 134.207 35.4854 134.208C68.5151 134.22 101.553 134.217 134.583 134.22C136.13 134.22 137.758 133.959 139.183 134.374C140.184 134.664 140.9 135.905 142.48 137.44H-131.805C-131.862 136.579 -131.91 135.715 -132 134.355H-21.3173C-21.293 134.051 -21.2686 133.746 -21.2441 133.442C-27.6188 132.555 -33.9855 131.692 -40.352 130.776C-45.9696 129.967 -51.5872 129.173 -57.1803 128.233C-60.3309 127.703 -63.4085 126.723 -66.5673 126.238C-74.2283 125.063 -81.8976 123.83 -89.575 122.829C-98.4003 121.678 -107.103 120.092 -115.782 118.204C-119.478 117.4 -123.321 117.206 -127.107 116.918C-129.02 116.772 -130.469 116.379 -130.746 113.938C-128.581 112.833 -126.203 113.17 -124.054 113.458C-119.006 114.135 -114.016 115.208 -109.017 116.166C-106.241 116.698 -103.505 117.467 -100.712 117.864C-96.7557 118.427 -92.7502 118.621 -88.8016 119.198C-82.6386 120.096 -76.4998 121.161 -70.3612 122.197C-65.1426 123.077 -59.9239 123.96 -54.7297 124.945C-47.2966 126.354 -39.6681 126.37 -32.3 128.296C-30.4845 128.77 -28.4574 128.422 -26.5279 128.452C-25.7626 130.172 -24.5901 129.736 -22.7502 128.77C-24.3948 128.631 -25.4614 128.541 -26.5279 128.452Z" fill="#C3F402"/>
</svg>

<svg width="143" height="138" fill="none" xmlns="http://www.w3.org/2000/svg"><path d="M19.56 118.633c-.089-.116-.178-.232-.268-.346-.106.097-.285.183-.301.292-.016.097.163.218.252.328l.318-.274zm-27.81-3.489-.269-.355c-.114.101-.293.193-.31.305-.008.101.164.224.253.338.114-.097.22-.192.326-.288zm2.344-4.638c-.097-.12-.187-.239-.276-.359-.025.223-.041.447-.065.671l.341-.312zm3.973 1.412.709-.056c-.065-.872-.13-1.744-.204-2.617l-.725.052.22 2.621zm29.896 9.585c.187-.298.374-.596.553-.894l-.561.881c-.188.293-.367.586-.546.878.187-.288.366-.577.554-.865zm-54.49 6.949c-3.209-1.412-6.351-3.043-9.657-4.186-5.34-1.845-10.811-3.31-16.193-5.04-13.1-4.211-26.183-8.473-39.266-12.73a8378.175 8378.175 0 0 1-32.24-10.546c-.692-.226-1.278-.754-2.051-1.22.716-2.16 2.002-2.621 3.907-1.928 2.483.9 4.967 1.805 7.474 2.636 8.769 2.905 17.545 5.827 26.346 8.652 10.942 3.513 21.933 6.877 32.875 10.41 10.054 3.247 20.052 6.648 30.09 9.933 1.059.348 2.231.367 3.355.539l1.734 1.064.317-.732-2.051-.328c-4.112-2.277-8.166-4.671-12.35-6.807-7.092-3.62-14.322-6.952-21.38-10.632-11.26-5.875-22.38-12.028-33.657-17.877-5.52-2.865-11.308-5.21-16.877-7.983-4.055-2.019-7.954-4.354-11.919-6.549.936-1.743 1.612-2.759 3.33-1.865 4.901 2.551 9.843 5.039 14.785 7.523 3.191 1.61 6.448 3.106 9.623 4.76 7.05 3.67 14.028 7.497 21.11 11.096 11.854 6.022 23.774 11.924 35.676 17.857 4.21 2.097 7.906 5.312 12.823 5.833l.904.547c-.31-.178-.61-.358-.912-.538-4.185-3.209-8.337-6.462-12.563-9.614-5.78-4.317-11.633-8.551-17.447-12.831-3.06-2.255-6.073-4.577-9.159-6.789-5.878-4.197-11.82-8.293-17.675-12.509-6.48-4.663-12.88-9.428-19.335-14.117-2.15-1.558-4.397-2.971-6.538-4.536-1.343-.984-2.841-1.933-3.053-3.767 2.28-1.915 3.916-.048 5.341.805 3.094 1.847 5.918 4.136 8.833 6.268 10.128 7.398 20.24 14.816 30.368 22.206 8.442 6.158 16.918 12.264 25.352 18.434 6.13 4.491 12.204 9.067 18.35 13.548.563.411 1.434.403 2.158.59l1.148 1.174c.302.176.595.353.896.53-.285-.193-.562-.387-.847-.58-.39-.382-.782-.763-1.18-1.145-1.262-1.428-2.46-2.925-3.802-4.272-23.016-23.05-46.056-46.078-69.08-69.122-1.32-1.322-2.549-2.738-3.77-4.06 1.14-1.954 2.41-1.66 3.533-.772 1.205.95 2.231 2.126 3.322 3.217 22.218 22.214 44.428 44.435 66.654 66.633 1.343 1.339 2.866 2.501 4.299 3.745.382.387.765.775 1.156 1.162l.879.551-.88-.548c-.39-.386-.78-.771-1.163-1.156-.31-.872-.432-1.876-.953-2.592-4.592-6.292-9.249-12.534-13.881-18.79-3.167-4.269-6.383-8.502-9.485-12.815-4.323-6-8.5-12.103-12.847-18.088-6.798-9.371-13.686-18.678-20.533-28.02-1.237-1.688-2.564-3.332-3.558-5.16-.309-.574.367-1.68.587-2.543.863.227 2.1.167 2.515.724 5.007 6.69 9.868 13.484 14.801 20.223 6.391 8.727 12.872 17.391 19.206 26.16 3.216 4.45 6.122 9.129 9.314 13.598 5.292 7.416 10.69 14.761 16.104 22.093.529.724 1.465 1.156 2.214 1.723.383.774.773 1.548 1.604 2.611.317.118.204-.023.09-.164-.139.137-.269.273-.4.41.131.122.253.311.408.344.09.02.236-.196-.098-.59-.839-1.06-1.221-1.831-1.612-2.602-.171-.735-.195-1.542-.537-2.19-4.641-8.977-9.412-17.884-13.955-26.909-3.15-6.247-5.83-12.728-8.996-18.965-5.495-10.853-11.227-21.587-16.828-32.39-2.353-4.544-4.617-9.136-7.246-14.341l1.823-1.35c.562.154 1.108.142 1.238.367 4.836 8.577 9.143 17.418 13.425 26.292 5.544 11.487 11.952 22.56 17.895 33.854 1.14 2.167 1.742 4.618 2.866 6.797 1.75 3.381 3.85 6.58 5.585 9.965 2.93 5.73 5.699 11.546 9.126 18.532 0-2.443.391-3.803-.065-4.766-4.046-8.609-6.016-17.903-9.004-26.859-3.574-10.738-7.327-21.43-10.494-32.29-2.59-8.872-6.734-17.224-8.289-26.456-.618-3.65-2.784-7.02-3.989-10.602-.26-.775.578-1.917 1.05-3.327 3.355 3.619 4.25 7.761 5.52 11.618 4.022 12.186 7.735 24.471 11.659 36.687 3.525 10.962 7.172 21.885 10.787 32.82 2.304 6.972 4.649 13.932 7.368 20.831-.83-11.831-3.541-23.397-4.836-35.164-1.294-11.803-3.924-23.456-5.829-35.2-1.897-11.724-3.623-23.477-5.48-35.625l3.526-.293L1.674 107.205l.765-.044V0h3.526v111.796l.594.017c.553-4.042 1.05-8.094 1.685-12.122 1.213-7.653 2.532-15.289 3.77-22.936.7-4.29 1.327-8.593 2.019-12.884 1.319-8.202 2.67-16.402 4.014-24.602.578-3.545 1.473-7.07 1.685-10.635.293-4.95 1.237-9.746 2.222-14.573.684-3.335.928-6.762 1.36-10.15.212-1.699.928-2.875 3.208-2.809.106 1.3.464 2.63.276 3.88-.586 3.917-1.457 7.789-2.06 11.704-.57 3.75-.797 7.555-1.416 11.295-1.368 8.19-2.947 16.345-4.315 24.534-.627 3.739-.96 7.527-1.449 11.29-.79 6.011-1.425 12.045-2.434 18.02-.839 5.009-2.313 9.912-3.135 14.924-.684 4.21-.838 8.508-.879 12.768 11.08-34.069 22.161-68.14 33.282-102.2.163-.5.725-.869 1.238-1.445 1.823.447 2.597 1.868 1.913 3.334-2.98 6.366-3.778 13.404-6.595 19.875-2.768 6.362-4.103 13.33-6.293 19.961-3.184 9.677-7.157 19.137-9.688 28.974-2.215 8.614-6.375 16.582-7.76 25.444-.333 2.139-2.311 3.968-2.002 6.444-.342.58-.692 1.16-1.042 1.741.236.101.48.202.716.304.114-.682.22-1.364.326-2.045.741-1.052 1.612-2.034 2.19-3.169 3.761-7.449 7.409-14.958 11.195-22.395 3.606-7.083 7.416-14.064 11.007-21.157 7.384-14.591 14.654-29.237 22.03-43.83 1.01-1.996 2.378-3.81 3.802-6.062.977.958 1.515 1.49 2.37 2.326-4.592 8.718-9.119 17.276-13.605 25.85-.7 1.338-1.213 2.774-1.88 4.13a286.983 286.983 0 0 1-3.599 7.074c-.627 1.177-1.425 2.26-2.019 3.452C40.777 68.03 34.891 79.958 28.98 91.869c-2.36 4.744-4.787 9.453-7.131 14.204-.407.827-.57 1.777-.847 2.672-1.474.566-2.443 1.415-1.702 4.507a5156.37 5156.37 0 0 1 1.702-4.507c1.286-1.126 2.825-2.065 3.81-3.41 3.802-5.215 7.392-10.587 11.137-15.848 4.73-6.646 9.518-13.256 14.313-19.854 4.47-6.151 9.013-12.248 13.482-18.4 5.805-7.986 11.528-16.029 17.374-23.984 1.099-1.5 2.524-3.075 4.893-.988-3.004 4.383-5.902 8.787-8.98 13.065-4.323 6.015-8.793 11.923-13.173 17.9-6.285 8.58-12.53 17.193-18.823 25.77-6.513 8.886-13.091 17.733-19.588 26.636-.521.716-.651 1.721-.96 2.592-.391.386-.774.773-1.165 1.159-.17.299-.35.599-.521.898.171-.3.35-.601.521-.902.383-.386.774-.773 1.156-1.159 1.555.189 2.41-.763 3.346-1.83 1.588-1.824 3.403-3.453 5.048-5.241 1.4-1.526 2.434-3.49 4.063-4.674 3.118-2.27 5.291-5.374 7.945-8.039a25113.614 25113.614 0 0 1 50.306-50.303c1.067-1.068 2.247-2.073 3.534-2.844.431-.256 1.465.162 2.003.565.317.232.423 1.184.203 1.58-.537.982-1.221 1.937-2.027 2.716-5.968 5.776-12.05 11.442-17.96 17.276-3.078 3.035-5.805 6.421-8.842 9.504-3.728 3.786-7.653 7.377-11.406 11.136-3.859 3.861-7.58 7.858-11.422 11.734-6.106 6.163-12.277 12.261-18.383 18.422-1.067 1.072-1.955 2.316-2.923 3.481-.383.386-.774.773-1.157 1.16-.39.386-.773.772-1.164 1.16l-.561.878c.187-.296.374-.592.553-.887.391-.387.774-.773 1.164-1.159.383-.386.774-.772 1.157-1.159 1.986-1.038 4.127-1.853 5.927-3.155 7.848-5.706 15.607-11.548 23.39-17.35 4.575-3.413 8.89-7.248 13.767-10.163 5.43-3.247 10.152-7.361 15.29-10.953 8.263-5.775 16.421-11.69 24.562-17.626 1.384-1.01 2.524-1.487 4.462-.006-1.441 1.519-2.483 3.3-4.03 4.13-6.277 3.37-11.146 8.627-17.032 12.467-11.634 7.593-22.422 16.354-33.86 24.21-8.305 5.7-16.267 11.91-24.368 17.908-1.92 1.42-3.794 2.9-5.397 4.825 8.206-3.385 15.9-7.697 23.748-11.685 8.003-4.061 15.998-8.127 24.017-12.139 7.987-3.993 16.129-7.698 23.977-11.942 7.702-4.163 15.363-8.328 24.277-11.964-.692 3.483-2.304 4.537-4.258 5.463a322.964 322.964 0 0 0-11.772 5.9c-6.879 3.613-13.67 7.415-20.59 10.935-11.365 5.775-22.836 11.341-34.218 17.087-6.416 3.243-12.725 6.714-19.124 9.997-2.72 1.392-5.544 2.57-8.06 4.569 1.954-.536 3.965-.899 5.837-1.636 12.668-4.99 25.752-8.659 38.786-12.514 4.16-1.23 8.109-3.16 12.253-4.476 11.325-3.598 22.722-6.98 34.055-10.576 3.599-1.142 7.1-2.623 10.592-4.078 1.694-.704 2.956-.51 4.242 1.388-.806.565-1.547 1.361-2.451 1.669a3650.893 3650.893 0 0 1-31.141 10.431c-9.843 3.249-19.71 6.421-29.57 9.636-13.082 4.268-26.166 8.547-40.08 13.094 1.694.177 2.687.522 3.558.334 7.214-1.552 14.46-2.807 21.828-3.466 5.446-.487 10.836-1.671 16.242-2.608 3.338-.58 6.66-1.295 9.997-1.919 4.071-.763 8.134-1.628 12.237-2.196 3.379-.468 6.766-.395 10.201-1.134 9.037-1.946 18.212-3.27 27.355-4.698 2.036-.318 4.16-.047 6.326-.047.366 2.364-.749 3.167-2.393 3.426-7.661 1.207-15.347 2.279-22.992 3.577-5.756.976-11.422 2.587-17.203 3.223-4.16.457-8.344.54-12.489 1.346-5.381 1.046-10.811 1.799-16.209 2.77-2.768.498-5.48 1.368-8.264 1.758-4.144.58-8.328.839-12.48 1.315-3.387.388-6.782.816-10.145 1.373-2.027.335-4.005.95-7.31 1.756 2.84.125 4.445.255 6.04.256 33.03.012 66.068.009 99.098.012 1.547 0 3.175-.261 4.6.154 1.001.29 1.717 1.531 3.297 3.066h-274.285c-.057-.861-.105-1.725-.195-3.085h110.683l.073-.913c-6.375-.887-12.742-1.75-19.108-2.666-5.618-.809-11.235-1.603-16.828-2.543-3.15-.53-6.228-1.51-9.387-1.995-7.661-1.175-15.33-2.408-23.008-3.409-8.825-1.151-17.528-2.737-26.207-4.625-3.696-.804-7.539-.998-11.325-1.286-1.913-.146-3.362-.539-3.639-2.98 2.165-1.105 4.543-.768 6.692-.48 5.048.677 10.038 1.75 15.037 2.708 2.776.532 5.512 1.301 8.305 1.698 3.956.563 7.962.757 11.91 1.334 6.163.898 12.302 1.963 18.44 2.999 5.22.88 10.438 1.763 15.632 2.748 7.433 1.409 15.062 1.425 22.43 3.351 1.815.474 3.843.126 5.772.156.765 1.72 1.938 1.284 3.778.318l-3.778-.318z" fill="#C3F402"/></svg>
